src/assets/svg/icons/fa/nuevos/classic/duotone/building-lock classic duotone.svg

<svg xmlns="http://www.w3.org/2000/svg" viewBox="0 0 576 512"><!--! Font Awesome Pro 6.4.0 by @fontawesome - https://fontawesome.com License - https://fontawesome.com/license (Commercial License) Copyright 2023 Fonticons, Inc. --><defs><style>.fa-secondary{opacity:.4}</style></defs><path class="fa-primary" d="M432 272v48h64V272c0-17.7-14.3-32-32-32s-32 14.3-32 32zm-48 48V272c0-44.2 35.8-80 80-80s80 35.8 80 80v48c17.7 0 32 14.3 32 32V480c0 17.7-14.3 32-32 32H384c-17.7 0-32-14.3-32-32V352c0-17.7 14.3-32 32-32z"/><path class="fa-secondary" d="M0 48C0 21.5 21.5 0 48 0H336c26.5 0 48 21.5 48 48V193.6c-19.8 20.2-32 47.9-32 78.4v24.6c-19.1 11.1-32 31.7-32 55.4V480c0 11.7 3.1 22.6 8.6 32H240V432c0-26.5-21.5-48-48-48s-48 21.5-48 48v80H48c-26.5 0-48-21.5-48-48V48zM80 224c-8.8 0-16 7.2-16 16v32c0 8.8 7.2 16 16 16h32c8.8 0 16-7.2 16-16V240c0-8.8-7.2-16-16-16H80zm80 16v32c0 8.8 7.2 16 16 16h32c8.8 0 16-7.2 16-16V240c0-8.8-7.2-16-16-16H176c-8.8 0-16 7.2-16 16zm112-16c-8.8 0-16 7.2-16 16v32c0 8.8 7.2 16 16 16h32c8.8 0 16-7.2 16-16V240c0-8.8-7.2-16-16-16H272zM64 112v32c0 8.8 7.2 16 16 16h32c8.8 0 16-7.2 16-16V112c0-8.8-7.2-16-16-16H80c-8.8 0-16 7.2-16 16zM176 96c-8.8 0-16 7.2-16 16v32c0 8.8 7.2 16 16 16h32c8.8 0 16-7.2 16-16V112c0-8.8-7.2-16-16-16H176zm80 16v32c0 8.8 7.2 16 16 16h32c8.8 0 16-7.2 16-16V112c0-8.8-7.2-16-16-16H272c-8.8 0-16 7.2-16 16z"/></svg>

<svg xmlns="http://www.w3.org/2000/svg" viewBox="0 0 576 512"><defs><style>.fa-secondary{opacity:.4}</style></defs><path class="fa-primary" d="M384 320V272C384 227.8 419.8 192 464 192C508.2 192 544 227.8 544 272V320C561.7 320 576 334.3 576 352V480C576 497.7 561.7 512 544 512H384C366.3 512 352 497.7 352 480V352C352 334.3 366.3 320 384 320zM432 320H496V272C496 254.3 481.7 240 464 240C446.3 240 432 254.3 432 272V320z"/><path class="fa-secondary" d="M0 48C0 21.49 21.49 0 48 0H336C362.5 0 384 21.49 384 48V193.6C364.2 213.8 352 241.5 352 272V296.6C332.9 307.6 320 328.3 320 352V480C320 491.7 323.1 502.6 328.6 512H240V432C240 405.5 218.5 384 192 384C165.5 384 144 405.5 144 432V512H48C21.49 512 0 490.5 0 464V48zM80 224C71.16 224 64 231.2 64 240V272C64 280.8 71.16 288 80 288H112C120.8 288 128 280.8 128 272V240C128 231.2 120.8 224 112 224H80zM160 272C160 280.8 167.2 288 176 288H208C216.8 288 224 280.8 224 272V240C224 231.2 216.8 224 208 224H176C167.2 224 160 231.2 160 240V272zM272 224C263.2 224 256 231.2 256 240V272C256 280.8 263.2 288 272 288H304C312.8 288 320 280.8 320 272V240C320 231.2 312.8 224 304 224H272zM64 144C64 152.8 71.16 160 80 160H112C120.8 160 128 152.8 128 144V112C128 103.2 120.8 96 112 96H80C71.16 96 64 103.2 64 112V144zM176 96C167.2 96 160 103.2 160 112V144C160 152.8 167.2 160 176 160H208C216.8 160 224 152.8 224 144V112C224 103.2 216.8 96 208 96H176zM256 144C256 152.8 263.2 160 272 160H304C312.8 160 320 152.8 320 144V112C320 103.2 312.8 96 304 96H272C263.2 96 256 103.2 256 112V144z"/></svg>
